X:1
T:Come to Jesus While You May
T:Come to Jesus While You May
T:William James Kirkpatrick
T:Mrs. C. N. Pickop, 1889
T:Public Domain Courtesy of the Cyber Hymnal™
T:Public Domain Courtesy of the Cyber Hymnal™
C:William James Kirkpatrick
Z:Public Domain
Z:Courtesy of the Cyber Hymnal™
%%score ( 1 2 ) ( 3 4 )
L:1/8
Q:1/4=105
M:4/4
K:G
V:1 treble 
V:2 treble 
V:3 bass 
V:4 bass 
V:1
 [B,D]3 [CE] [B,D]2 [B,G]2 | [DB]3 [Ec] [DB]2 [B,G]2 | [DG]3 [DG] [DA]2 [DB]2 | [Dc]2 [DB]2 [DA]4 | %4
w: 1.~Come to Je- sus,|trem- bling sin- ner,|With your load of|guilt op- pressed;|
w: 2.~He is wait- ing,|He is rea- dy|Ten- der, lov- ing|words to say;|
w: 3.~Time is fly- ing,|do not tar- ry;|Haste, while it is|called to- day;|
w: 4.~Do not lin- ger,|do not tri- fle,|Heed your lov- ing|Sav- ior’s call;|
 [DB]3 [Dc] [Dd]2 [DB]2 | [DB]2 [CA]2 [B,G]2 [CE]2 | [B,D]3 [CE] [B,D]2 [DG]2 | %7
w: Come to Je- sus,|He will save you;|Come, and He will|
w: Will you not ac-|cept His bless- ing?|Give your heart to|
w: Can you spurn His|ten- der plead- ing?|Can you turn this|
w: In His ten- der|heart there’s mer- cy,|In His arms there’s|
 [DB]2 [DA]2 !fermata![DG]2 ||"^Refrain" [GB]>[Ac] | [Bd]4 [GB]2 [FA]>[GB] | %10
w: give you rest.|||
w: Him to- day.|Come to|Je- sus, come to|
w: friend a- way?|||
w: room for all.|||
 [Ac]4 [FA]2 [FA]>[GB] | [Fc][Fc][Fc][Fc] [Fc][Fc] [Fd]>[Fc] | [GB]6 [GB]>[Ac] | %13
w: |||
w: Je- sus, Wea- ry|sin- ner, come to Je- sus while you|may; He will|
w: |||
w: |||
 [Bd]4 [GB]2 [GB]>[FA] | [EG]4 !fermata![CE]2 [Ec]>[Ec] | [DB][DB][DG][DG] [DA][DG] [DA]>[DB] | %16
w: |||
w: save you, He will|save you, Wea- ry|sin- ner, He will save you, come to-|
w: |||
w: |||
 !fermata!G6 !fermata!D2 |] %17
w: |
w: day. *|
w: |
w: |
V:2
 x8 | x8 | x8 | x8 | x8 | x8 | x8 | x6 || x2 | x8 | x8 | x8 | x8 | x8 | x8 | x8 | D2 E>E x4 |] %17
V:3
 [G,,G,]3 [G,,G,] [G,,G,]2 [G,,D,]2 | [G,,G,]3 [G,,G,] [G,,G,]2 [G,,G,]2 | %2
w: ||
 [B,,G,]3 [B,,G,] [D,F,]2 G,2 | [F,A,]2 G,2 [D,F,]4 | G,3 [G,A,] [G,B,]2 G,2 | %5
w: * * * Come,|* oh, *|come * * to-|
 [D,G,]2 [D,F,]2 [E,G,]2 [C,G,]2 | [G,,G,]3 [G,,G,] [G,,G,]2 [B,,G,]2 | %7
w: ||
 [D,G,]2 (F,C) !fermata![G,,G,B,]2 || z2 | [G,D][G,D][G,D][G,D] [G,D]2 z2 | %10
w: ||day, come, oh, come to-|
 [D,D][D,D][D,D][D,D] [D,D]2 [D,D]>[D,D] | [D,A,][D,A,][D,A,][D,A,] [D,A,][D,A,] [D,A,]>[D,D] | %12
w: day, He will save to- * *||
 [G,D]6 z2 | [G,D][G,D][G,D][G,D] [G,D]2 z2 | [C,C][C,C][C,C][C,C] !fermata![C,G,]2 [C,G,]>[C,G,] | %15
w: |day, He will save to-|day, * * * * * *|
 [D,G,][D,G,][D,B,][D,B,] [D,C][D,B,] [D,C]>[D,D] | (B,2 C>C !fermata!B,2) x2 |] %17
w: ||
V:4
 x8 | x8 | x6 G,2 | x2 G,2 x4 | G,3 G,2 x3 | x8 | x8 | x2 D,2 x2 || x2 | x8 | x8 | x8 | x8 | x8 | %14
 x8 | x8 | [G,,G,]6 x2 |] %17

